X:5016
T:Red Flanagan's Last Throw
M:6/8
L:1/8
Q:180
C:Aidan Crossey
R:Jig
K:G
|:G2A|B2E EEE|FEE GEE|B2E EEE|D2D DGA|
B2E EEE|FEE GEE|ABA GFG|E3:||
|:E2F|G2G GAB|ABG F2A|G2G GAB|A3 ABc|
dBB cAA|BAG FED|BAG FGF|E3:||
